src/resources/assets/home.svg

<svg xmlns="http://www.w3.org/2000/svg" width="16" height="16"><path d="M 7.3125 1.261719 C 7.699219 0.898438 8.300781 0.898438 8.6875 1.261719 L 13.53125 5.839844 C 13.832031 6.125 14 6.519531 14 6.929688 L 14 12.5 C 14 13.328125 13.328125 14 12.5 14 L 10.5 14 C 9.671875 14 9 13.328125 9 12.5 L 9 10 C 9 9.722656 8.777344 9.5 8.5 9.5 L 7.5 9.5 C 7.222656 9.5 7 9.722656 7 10 L 7 12.5 C 7 13.328125 6.328125 14 5.5 14 L 3.5 14 C 2.671875 14 2 13.328125 2 12.5 L 2 6.929688 C 2 6.519531 2.167969 6.125 2.46875 5.839844 Z M 8 1.988281 L 3.15625 6.566406 C 3.054688 6.660156 3 6.792969 3 6.929688 L 3 12.5 C 3 12.777344 3.222656 13 3.5 13 L 5.5 13 C 5.777344 13 6 12.777344 6 12.5 L 6 10 C 6 9.171875 6.671875 8.5 7.5 8.5 L 8.5 8.5 C 9.328125 8.5 10 9.171875 10 10 L 10 12.5 C 10 12.777344 10.222656 13 10.5 13 L 12.5 13 C 12.777344 13 13 12.777344 13 12.5 L 13 6.929688 C 13 6.792969 12.945312 6.660156 12.84375 6.566406 Z M 8 1.988281" fill="#ddd"/></svg>

<svg xmlns="http://www.w3.org/2000/svg" width="16" height="16"><path d="M7.313 1.262a1.004 1.004 0 011.375 0L13.53 5.84c.301.285.469.68.469 1.09v5.57a1.5 1.5 0 01-1.5 1.5h-2A1.5 1.5 0 019 12.5V10c0-.277-.223-.5-.5-.5h-1c-.277 0-.5.223-.5.5v2.5A1.5 1.5 0 015.5 14h-2A1.5 1.5 0 012 12.5V6.93c0-.41.168-.805.469-1.09zM8 1.988L3.156 6.566A.493.493 0 003 6.93v5.57c0 .277.223.5.5.5h2c.277 0 .5-.223.5-.5V10a1.5 1.5 0 011.5-1.5h1A1.5 1.5 0 0110 10v2.5c0 .277.223.5.5.5h2c.277 0 .5-.223.5-.5V6.93a.493.493 0 00-.156-.364zm0 0" fill="#ddd"/></svg>
